symbols/web/switch_video/materialsymbolssharp/switch_video_wght500grad200_48px.svg

<svg xmlns="http://www.w3.org/2000/svg" height="48" width="48"><path d="m13.9 30.95 2.3-2.3-3-3.1h13.15l-3.05 3.1 2.3 2.3 7.1-7.1-7.1-7.1-2.3 2.3 3.05 3.05H13.2l3-3.05-2.3-2.3-7.1 7.1Zm-11 9.9V7.15h33.7v14.3l8.5-8.5v22.1l-8.5-8.5v14.3Zm3.9-3.9h25.9v-25.9H6.8Zm0 0v-25.9 25.9Z"/></svg>

<svg xmlns="http://www.w3.org/2000/svg" height="48" width="48"><path d="M13.9 30.95 16.2 28.65 13.2 25.55H26.35L23.3 28.65L25.6 30.95L32.7 23.85L25.6 16.75L23.3 19.05L26.35 22.1H13.2L16.2 19.05L13.9 16.75L6.8 23.85ZM2.9 40.85V7.15H36.6V21.45L45.1 12.95V35.05L36.6 26.55V40.85ZM6.8 36.95H32.7V11.05H6.8ZM6.8 36.95V11.05V36.95Z"/></svg>
